symbols/web/single_bed/materialsymbolsrounded/single_bed_wght500grad200_20px.svg

<svg xmlns="http://www.w3.org/2000/svg" height="20" width="20"><path d="M2.417 15.104v-4.812q0-.792.448-1.48.447-.687 1.218-.895V5.688q0-1.021.709-1.73.708-.708 1.729-.708h6.958q1.021 0 1.729.708.709.709.709 1.73v2.229q.771.208 1.218.885.448.677.448 1.469v4.833h-1.437l-.5 1.208q-.084.271-.334.407-.25.135-.52.135-.292 0-.552-.156-.261-.156-.365-.448l-.458-1.146H6.583l-.5 1.208q-.083.271-.333.407-.25.135-.521.135-.312 0-.562-.156-.25-.156-.355-.448l-.458-1.146Zm8.687-7.042h2.375V5.688h-2.375Zm-4.583 0h2.375V5.688H6.521Zm-1.667 4.605h10.292v-2.396H4.854Zm10.292 0H4.854h10.292Z"/></svg>

<svg xmlns="http://www.w3.org/2000/svg" height="20" width="20"><path d="M2.417 15.104V10.292Q2.417 9.5 2.865 8.812Q3.312 8.125 4.083 7.917V5.688Q4.083 4.667 4.792 3.958Q5.5 3.25 6.521 3.25H13.479Q14.5 3.25 15.208 3.958Q15.917 4.667 15.917 5.688V7.917Q16.688 8.125 17.135 8.802Q17.583 9.479 17.583 10.271V15.104H16.146L15.646 16.312Q15.562 16.583 15.312 16.719Q15.062 16.854 14.792 16.854Q14.5 16.854 14.24 16.698Q13.979 16.542 13.875 16.25L13.417 15.104H6.583L6.083 16.312Q6 16.583 5.75 16.719Q5.5 16.854 5.229 16.854Q4.917 16.854 4.667 16.698Q4.417 16.542 4.312 16.25L3.854 15.104ZM11.104 8.062H13.479V5.688Q13.479 5.688 13.479 5.688Q13.479 5.688 13.479 5.688H11.104ZM6.521 8.062H8.896V5.688H6.521Q6.521 5.688 6.521 5.688Q6.521 5.688 6.521 5.688ZM4.854 12.667H15.146V10.271Q15.146 10.271 15.146 10.271Q15.146 10.271 15.146 10.271H4.854Q4.854 10.271 4.854 10.271Q4.854 10.271 4.854 10.271ZM15.146 12.667H4.854Q4.854 12.667 4.854 12.667Q4.854 12.667 4.854 12.667H15.146Q15.146 12.667 15.146 12.667Q15.146 12.667 15.146 12.667Z"/></svg>
